X: 3
T: 'S Ann An Ìle
R: strathspey
M: 4/4
K: Gmajor
uD2|:{F}v[G,2G2]uB>ud c>A B>G|{D}E2 uA>uG F<D D>F|{F}[G,2G2]uB>ud c>A B>G|1 E>A F<D {F}G2 uG>uD:|2 E>A F<D {F}G2 (G>E)|
D>D D>B, D>D D>(B|d>B) A>B G<E E>G|D>D D>B, D>D D>(B|1 d>B) A<B {F}G2 G>E:|2 d>B) A<B {F}G2||

